X:1
T:Title
%%score 1 2
L:1/8
Q:1/4=90
M:4/4
K:C
V:1 treble nm="Drawbar Organ, Soprano"
V:2 bass nm="Church Organ, Marching Along"
V:1
 [EG] [EG]2 [EG]- [EG]/[FA]/ [EG]2 [CE] | [DF] [EG]2 [EG]- [EG]/[FA]/ [EG]3 | %2
w: By~William~Batchelder~Bradbury * * * * * *||
 [EG] [FA]2 [FA]- [FA]/[GB]/ [Ac]2 [GB]- | [GB]/[FA]/ [EG]2 [EG]- [EG]/[CE]/ [B,D]3 | %4
w: ||
 [EG] [EG]2 [EG]- [EG]/[FA]/[EG] [EG][CE] | [EG] [FA]2 [FA]- [FA]/[GB]/ [Ac]3 | %6
w: ||
 [FA] G2 [Gc]- [Gc]/[GB]/[FA] [FA][Fd] | [EAc] [DGB]2 [CFA]- [CFA]/[DFB]/ [Ec]3- | %8
w: ||
 [Ec] [ce]2 [ce]- [ce]/[ce]/ [ce]2 [Bd] | [Ac] [Ac]2 [GB]- [GB]/[FA]/ [EG]3- | %10
w: ||
 [EG] [EG]2 [Ec]- [Ec]/[Fd]/[Ec] [Ec][DGB] | [EAc] [GBd]2 [GBd]- [GBd]/[Gce]/ [GBd]3 | %12
w: ||
 [GBd] [Gce]2 [Gce] [Gce][Gce][Gce][Bd] | [Ac] [FA]2 [FA] [FA] [Ac]3 | %14
w: ||
 [FA] G2 [Gc]- [Gc]/[GB]/[FA] [FA][Fd] | [Ec] [DB]2 [CA]- [CA]/[DB]/ [Ec]3- | [Ec]4 z4 |] %17
w: |||
V:2
 C, C,2 C,- C,/C,/ C,2 C, | C, C,2 C,- C,/C,/ C,3 | C, F,2 F,- F,/F,/ F,2 F,- | %3
 F,/F,/ C,2 C,- C,/E,/ F,3 | C, C,2 C,- C,/C,/C, C,C, | C, F,2 F,- F,/F,/ F,3 | %6
 F, E,2 E,- E,/E,/F, F,F, | F, G,2 G,- G,/G,/ C,3- | C, C,2 E,- E,/G,/ C2 G, | %9
 A, F,2 F,- F,/F,/ C,3- | C, C,2 C,- C,/C,/C, C,D, | C, G,2 G,- G,/G,/ G,3 | G, C,2 C, C,C,C,D, | %13
 E, F,2 F, F, F,3 | F, E,2 E,- E,/E,/F, F,F, | F, G,2 G,- G,/G,/ C,3- | C,4 z4 |] %17

